X: 43332
T: Workin' At The Winery
R: jig
M: 6/8
K: Dmajor
A3 DEF|Ggf edc|Bc^A B=AF|EGF EFG|A3 DEF|
Ggf edc|1 dAA BAF|EFE DFG:|2 dfa baf|efe dfg||
|:a3 def|g2B Bcd|ef^d e2=d|cBc Adf|
[1 a3 def|g2B Bcd|egf edc|dDF Adf:|
[2 a2d def|gba gfe|fAA BAF|EGF EFG||
A3 edc|BEF GAB|cBc Adf|ab^g a2f|=g3 bag|
fFG ABc|dAA BAF|EGF EFG|A3 edc|BEF GAB|
cBc Adf|ab^g a2b|=c'2b bag|fag fe^c|dAA BAF|EFE D3||

